X:17996
T:Unknown
M:4/4
L:1/8
S:Dervish
K:D
|D2FD ADFD|E2GE BEGE|dcdA BAFD|G2FD EGFE|D2FD ADFD|E3G BEGE|d3A BAFD|EDE
F D3A:|
|B3A B3c|dBBA B3d|cAA2 fAeA|cAeA fedc|B3A BABc|dBBA B3c|dBcA BAFA|
|1Bcde fedc:|2BdDE FEEF:||
